packages/components/icon/src/assets/icons/user-settings.svg

<svg width="24" height="24" viewBox="0 0 24 24" fill="none" xmlns="http://www.w3.org/2000/svg">
<path fill-rule="evenodd" clip-rule="evenodd" d="M11.6364 3C12.4174 3 13.1369 3.19163 13.7949 3.5749C14.453 3.95816 14.9737 4.47882 15.3569 5.13688C15.7402 5.79494 15.9318 6.51446 15.9318 7.29545C15.9318 8.16323 15.6968 8.94783 15.2268 9.64928C14.7567 10.3507 14.1384 10.875 13.3719 11.2221C14.5 11.3667 15.5124 11.6415 16.4091 12.0465C17.3058 12.4514 18.0072 12.9468 18.5134 13.5325C19.0196 14.1183 19.2727 14.7438 19.2727 15.4091V18.75C19.2727 19.155 19.1317 19.4948 18.8497 19.7696C18.5677 20.0444 18.2314 20.1818 17.8409 20.1818H5.43182C5.02686 20.1818 4.68698 20.0444 4.41219 19.7696C4.1374 19.4948 4 19.155 4 18.75V15.4091C4 14.7438 4.2531 14.1183 4.7593 13.5325C5.2655 12.9468 5.96694 12.4514 6.86364 12.0465C7.76033 11.6415 8.77272 11.3667 9.90083 11.2221C9.13429 10.875 8.51601 10.3507 8.04597 9.64928C7.57593 8.94783 7.34091 8.16323 7.34091 7.29545C7.34091 6.51446 7.53254 5.79494 7.91581 5.13688C8.29907 4.47882 8.81973 3.95816 9.47779 3.5749C10.1359 3.19163 10.8554 3 11.6364 3Z" fill="currentColor"/>
</svg>

<svg viewBox="0 0 24 24" fill="none" xmlns="http://www.w3.org/2000/svg"><path fill-rule="evenodd" clip-rule="evenodd" d="M11.636 3c.781 0 1.5.192 2.159.575a4.257 4.257 0 0 1 1.562 1.562c.383.658.575 1.377.575 2.158 0 .868-.235 1.653-.705 2.354a4.354 4.354 0 0 1-1.855 1.573c1.128.145 2.14.42 3.037.825.897.404 1.598.9 2.104 1.486.507.585.76 1.21.76 1.876v3.341c0 .405-.141.745-.423 1.02a1.395 1.395 0 0 1-1.01.412H5.433c-.405 0-.745-.138-1.02-.412A1.385 1.385 0 0 1 4 18.75v-3.34c0-.666.253-1.292.76-1.877.506-.586 1.207-1.082 2.104-1.486.896-.405 1.909-.68 3.037-.825A4.354 4.354 0 0 1 8.046 9.65a4.134 4.134 0 0 1-.705-2.354c0-.78.192-1.5.575-2.158a4.258 4.258 0 0 1 1.562-1.562A4.213 4.213 0 0 1 11.636 3Z" fill="currentColor"/></svg>
